**kern	**silbe	**harmony	**chordsym	**phrase	**timestamp	**leadinstrument
*ICvox	*	*M4/4	*M4/4	*	*	*
*E:	*	*F:	*F:	*	*	*
*M4/4	*	*	*	*	*	*
*clefG2	*	*	*	*	*	*
r;	.	1r;	r	.	0	r
=1	=1	=1	=1	=1	=1	=1
*	*	*>A_intro	*>A_intro	*>A_intro	*>A_intro	*>A_intro
1r	.	1EM	E:maj (E G# B)	newline	.	guitar
=2	=2	=2	=2	=2	=2	=2
1r	.	1EM	E:maj (E G# B)	.	.	guitar
=3	=3	=3	=3	=3	=3	=3
1r	.	1EM	E:maj (E G# B)	.	.	guitar
=4	=4	=4	=4	=4	=4	=4
1r	.	1EM	E:maj (E G# B)	.	.	guitar
=5	=5	=5	=5	=5	=5	=5
1r	.	1EM	E:maj (E G# B)	newline	.	guitar
=6	=6	=6	=6	=6	=6	=6
1r	.	1EM	E:maj (E G# B)	.	.	guitar
=7	=7	=7	=7	=7	=7	=7
1r	.	1EM	E:maj (E G# B)	.	.	guitar
=8	=8	=8	=8	=8	=8	=8
1r	.	1EM	E:maj (E G# B)	.	.	guitar
=9	=9	=9	=9	=9	=9	=9
*	*	*>B_verse	*>B_verse	*>B_verse	*>B_verse	*>B_verse
4e	You	1EM	E:maj (E G# B)	newline	.	voice
4e	keep	.	.	.	.	.
8d#	say-	.	.	.	.	.
8e	-in'	.	.	.	.	.
4r	.	.	.	.	.	.
=10	=10	=10	=10	=10	=10	=10
4e	you	1EM	E:maj (E G# B)	.	.	voice
4e	got	.	.	.	.	.
8d#	some-	.	.	.	.	.
4.e	-thing	.	.	.	.	.
=11	=11	=11	=11	=11	=11	=11
4B	for	1EM	E:maj (E G# B)	.	.	voice
4B	me	.	.	.	.	.
2r	.	.	.	.	.	.
=12	=12	=12	=12	=12	=12	=12
1r	.	1EM	E:maj (E G# B)	.	.	voice
=13	=13	=13	=13	=13	=13	=13
8e	Some-	1EM	E:maj (E G# B)	newline	.	voice
4.e	-thin'	.	.	.	.	.
8e	you	.	.	.	.	.
4.e	call	.	.	.	.	.
=14	=14	=14	=14	=14	=14	=14
4e	love	1EM	E:maj (E G# B)	.	.	voice
4r	.	.	.	.	.	.
4e	but	.	.	.	.	.
4e	con-	.	.	.	.	.
=15	=15	=15	=15	=15	=15	=15
4B	-fess	1EM	E:maj (E G# B)	.	.	voice
4r	.	.	.	.	.	.
2r	.	.	.	.	.	.
=16	=16	=16	=16	=16	=16	=16
1r	.	1EM	E:maj (E G# B)	.	.	voice
=17	=17	=17	=17	=17	=17	=17
4c#	You've	1AM	A:maj (A C# E)	newline	.	voice
8c#	been	.	.	.	.	.
8B#	uh	.	.	.	.	.
8c#	mess-	.	.	.	.	.
8c#	-in'	.	.	.	.	.
4r	.	.	.	.	.	.
=18	=18	=18	=18	=18	=18	=18
4c#	where	1AM	A:maj (A C# E)	.	.	voice
8B#	you	.	.	.	.	.
8c#	shoul-	.	.	.	.	.
12c#	-dn't-	.	.	.	.	.
12c#	-a	.	.	.	.	.
12[c#	been	.	.	.	.	.
12c#]	_	.	.	.	.	.
6c#	a	.	.	.	.	.
=19	=19	=19	=19	=19	=19	=19
8c#	mess-	1AM	A:maj (A C# E)	.	.	voice
4.e	-in'	.	.	.	.	.
2r	.	.	.	.	.	.
=20	=20	=20	=20	=20	=20	=20
2r	.	1AM	A:maj (A C# E)	.	.	voice
8r	.	.	.	.	.	.
8c#	and	.	.	.	.	.
4c#	now	.	.	.	.	.
=21	=21	=21	=21	=21	=21	=21
8e	some-	1EM	E:maj (E G# B)	newline	.	voice
4e	-one	.	.	.	.	.
8[d#	else	.	.	.	.	.
4d#]	_	.	.	.	.	.
4e	is	.	.	.	.	.
=22	=22	=22	=22	=22	=22	=22
8e	get-	1EM	E:maj (E G# B)	.	.	voice
4e	-tin'	.	.	.	.	.
8[e	all	.	.	.	.	.
4e]	_	.	.	.	.	.
8B	your	.	.	.	.	.
8[B	best	.	.	.	.	.
=23	=23	=23	=23	=23	=23	=23
4B]	_	1EM	E:maj (E G# B)	.	.	voice
4r	.	.	.	.	.	.
2r	.	.	.	.	.	.
=24	=24	=24	=24	=24	=24	=24
2r	.	1EM	E:maj (E G# B)	.	.	voice
4r	.	.	.	.	.	.
4B	These	.	.	.	.	.
=25	=25	=25	=25	=25	=25	=25
*	*	*>C_chorus	*>C_chorus	*>C_chorus	*>C_chorus	*>C_chorus
4d#	boots	1GM	G:maj (G B D)	newline	.	voice
8d#	are	.	.	.	.	.
8[d#	made	.	.	.	.	.
4d#]	_	.	.	.	.	.
8d#	for	.	.	.	.	.
8[e	walk-	.	.	.	.	.
=26	=26	=26	=26	=26	=26	=26
8e]	_	1EM	E:maj (E G# B)	.	.	voice
8B	-in'	.	.	.	.	.
4r	.	.	.	.	.	.
4.r	.	.	.	.	.	.
8B	and	.	.	.	.	.
=27	=27	=27	=27	=27	=27	=27
4d#	that's	1GM	G:maj (G B D)	.	.	voice
4d#	just	.	.	.	.	.
8d#	what	.	.	.	.	.
4.d#	they'll	.	.	.	.	.
=28	=28	=28	=28	=28	=28	=28
4e	do	1EM	E:maj (E G# B)	.	.	voice
4r	.	.	.	.	.	.
2r	.	.	.	.	.	.
=29	=29	=29	=29	=29	=29	=29
8d#	One	1GM	G:maj (G B D)	newline	.	voice
8d#	of	.	.	.	.	.
4d#	these	.	.	.	.	.
4d#	days	.	.	.	.	.
4d#	these	.	.	.	.	.
=30	=30	=30	=30	=30	=30	=30
4e	boots	1EM	E:maj (E G# B)	.	.	voice
4A#	are	.	.	.	.	.
8A#	gon-	.	.	.	.	.
4.A#	-na	.	.	.	.	.
=31	=31	=31	=31	=31	=31	=31
8B	walk	1N	N	.	.	voice
4.A	all	.	.	.	.	.
8G	ov-	.	.	.	.	.
8F#	-er	.	.	.	.	.
4E	_	.	.	.	.	.
=32	=32	=32	=32	=32	=32	=32
*	*	*>A_interlude	*>A_interlude	*>A_interlude	*>A_interlude	*>A_interlude
4E	you	1EM	E:maj (E G# B)	newline	.	guitar
4r	.	.	.	.	.	.
2r	.	.	.	.	.	.
=33	=33	=33	=33	=33	=33	=33
1r	.	1EM	E:maj (E G# B)	.	.	guitar
=34	=34	=34	=34	=34	=34	=34
1r	.	1EM	E:maj (E G# B)	.	.	guitar
=35	=35	=35	=35	=35	=35	=35
1r	.	1EM	E:maj (E G# B)	.	.	guitar
=36	=36	=36	=36	=36	=36	=36
1r	.	1EM	E:maj (E G# B)	newline	.	guitar
=37	=37	=37	=37	=37	=37	=37
1r	.	1EM	E:maj (E G# B)	.	.	guitar
=38	=38	=38	=38	=38	=38	=38
1r	.	1EM	E:maj (E G# B)	.	.	guitar
=39	=39	=39	=39	=39	=39	=39
1r	.	1EM	E:maj (E G# B)	.	.	guitar
=40	=40	=40	=40	=40	=40	=40
*	*	*>B_verse	*>B_verse	*>B_verse	*>B_verse	*>B_verse
4e	You	1EM	E:maj (E G# B)	newline	.	voice
4e	keep	.	.	.	.	.
8d#	ly-	.	.	.	.	.
8e	-in'	.	.	.	.	.
4r	.	.	.	.	.	.
=41	=41	=41	=41	=41	=41	=41
4e	when	1EM	E:maj (E G# B)	.	.	voice
8d#	you	.	.	.	.	.
8[e	ought-	.	.	.	.	.
8e]	_	.	.	.	.	.
8d#	-ta	.	.	.	.	.
4e	be	.	.	.	.	.
=42	=42	=42	=42	=42	=42	=42
8B	truth-	1EM	E:maj (E G# B)	.	.	voice
4.B	-in'	.	.	.	.	.
2r	.	.	.	.	.	.
=43	=43	=43	=43	=43	=43	=43
2r	.	1EM	E:maj (E G# B)	.	.	voice
4.r	.	.	.	.	.	.
8B	and	.	.	.	.	.
=44	=44	=44	=44	=44	=44	=44
4e	you	1EM	E:maj (E G# B)	newline	.	voice
4e	keep	.	.	.	.	.
8e	los-	.	.	.	.	.
8e	-in'	.	.	.	.	.
4r	.	.	.	.	.	.
=45	=45	=45	=45	=45	=45	=45
4e	when	1EM	E:maj (E G# B)	.	.	voice
8d#	you	.	.	.	.	.
8e	ought-	.	.	.	.	.
8d#	-ta	.	.	.	.	.
4.e	not	.	.	.	.	.
=46	=46	=46	=46	=46	=46	=46
4B	bet	1EM	E:maj (E G# B)	.	.	voice
4r	.	.	.	.	.	.
2r	.	.	.	.	.	.
=47	=47	=47	=47	=47	=47	=47
1r	.	1EM	E:maj (E G# B)	.	.	voice
=48	=48	=48	=48	=48	=48	=48
4c#	You	1AM	A:maj (A C# E)	newline	.	voice
4c#	keep	.	.	.	.	.
8c#	same-	.	.	.	.	.
8c#	-in'	.	.	.	.	.
4r	.	.	.	.	.	.
=49	=49	=49	=49	=49	=49	=49
4c#	when	1AM	A:maj (A C# E)	.	.	voice
8B#	you	.	.	.	.	.
8c#	ought-	.	.	.	.	.
8B#	-ta	.	.	.	.	.
8c#	be	.	.	.	.	.
4c#	a	.	.	.	.	.
=50	=50	=50	=50	=50	=50	=50
4c#	chang-	1AM	A:maj (A C# E)	.	.	voice
4e	-in'	.	.	.	.	.
2r	.	.	.	.	.	.
=51	=51	=51	=51	=51	=51	=51
2r	.	1AM	A:maj (A C# E)	.	.	voice
8r	.	.	.	.	.	.
8B	Now	.	.	.	.	.
4c#	what's	.	.	.	.	.
=52	=52	=52	=52	=52	=52	=52
8e	right	1EM	E:maj (E G# B)	newline	.	voice
4e	is	.	.	.	.	.
8e	right	.	.	.	.	.
4r	.	.	.	.	.	.
8r	.	.	.	.	.	.
8B	but	.	.	.	.	.
=53	=53	=53	=53	=53	=53	=53
8e	you	1EM	E:maj (E G# B)	.	.	voice
4.e	ain't	.	.	.	.	.
8e	been	.	.	.	.	.
4.e	right	.	.	.	.	.
=54	=54	=54	=54	=54	=54	=54
4B	yet	1EM	E:maj (E G# B)	.	.	voice
4r	.	.	.	.	.	.
2r	.	.	.	.	.	.
=55	=55	=55	=55	=55	=55	=55
2r	.	1EM	E:maj (E G# B)	.	.	voice
4r	.	.	.	.	.	.
4B	These	.	.	.	.	.
=56	=56	=56	=56	=56	=56	=56
*	*	*>C_chorus	*>C_chorus	*>C_chorus	*>C_chorus	*>C_chorus
4d#	boots	1GM	G:maj (G B D)	newline	.	voice
8d#	are	.	.	.	.	.
8[d#	made	.	.	.	.	.
4d#]	_	.	.	.	.	.
4d#	for	.	.	.	.	.
=57	=57	=57	=57	=57	=57	=57
8e	walk-	1EM	E:maj (E G# B)	.	.	voice
8B	-in'	.	.	.	.	.
4r	.	.	.	.	.	.
4.r	.	.	.	.	.	.
8B	and	.	.	.	.	.
=58	=58	=58	=58	=58	=58	=58
4d#	that's	1GM	G:maj (G B D)	.	.	voice
4d#	just	.	.	.	.	.
8d#	what	.	.	.	.	.
4.d#	they'll	.	.	.	.	.
=59	=59	=59	=59	=59	=59	=59
2e	do	1EM	E:maj (E G# B)	.	.	voice
2r	.	.	.	.	.	.
=60	=60	=60	=60	=60	=60	=60
8d#	One	1GM	G:maj (G B D)	newline	.	voice
8d#	of	.	.	.	.	.
4d#	these	.	.	.	.	.
4d#	days	.	.	.	.	.
4d#	these	.	.	.	.	.
=61	=61	=61	=61	=61	=61	=61
4e	boots	1EM	E:maj (E G# B)	.	.	voice
4A#	are	.	.	.	.	.
8A#	gon-	.	.	.	.	.
4.A#	-na	.	.	.	.	.
=62	=62	=62	=62	=62	=62	=62
8B	walk	1N	N	.	.	voice
4.A	all	.	.	.	.	.
8G	ov-	.	.	.	.	.
8F#	-er	.	.	.	.	.
4E	_	.	.	.	.	.
=63	=63	=63	=63	=63	=63	=63
*	*	*>A_interlude	*>A_interlude	*>A_interlude	*>A_interlude	*>A_interlude
4E	you	1EM	E:maj (E G# B)	newline	.	guitar
4r	.	.	.	.	.	.
2r	.	.	.	.	.	.
=64	=64	=64	=64	=64	=64	=64
1r	.	1EM	E:maj (E G# B)	.	.	guitar
=65	=65	=65	=65	=65	=65	=65
1r	.	1EM	E:maj (E G# B)	.	.	guitar
=66	=66	=66	=66	=66	=66	=66
1r	.	1EM	E:maj (E G# B)	.	.	guitar
=67	=67	=67	=67	=67	=67	=67
1r	.	1EM	E:maj (E G# B)	newline	.	guitar
=68	=68	=68	=68	=68	=68	=68
1r	.	1EM	E:maj (E G# B)	.	.	guitar
=69	=69	=69	=69	=69	=69	=69
1r	.	1EM	E:maj (E G# B)	.	.	guitar
=70	=70	=70	=70	=70	=70	=70
1r	.	1EM	E:maj (E G# B)	.	.	guitar
=71	=71	=71	=71	=71	=71	=71
*	*	*>B_verse	*>B_verse	*>B_verse	*>B_verse	*>B_verse
4e	You	1EM	E:maj (E G# B)	newline	.	voice
4e	keep	.	.	.	.	.
8d#	play-	.	.	.	.	.
8e	-in'	.	.	.	.	.
4r	.	.	.	.	.	.
=72	=72	=72	=72	=72	=72	=72
4e	where	1EM	E:maj (E G# B)	.	.	voice
8d#	you	.	.	.	.	.
8e	should-	.	.	.	.	.
8d#	-n't	.	.	.	.	.
4.e	be	.	.	.	.	.
=73	=73	=73	=73	=73	=73	=73
8e	play-	1EM	E:maj (E G# B)	.	.	voice
4.B	-in'	.	.	.	.	.
2r	.	.	.	.	.	.
=74	=74	=74	=74	=74	=74	=74
2r	.	1EM	E:maj (E G# B)	.	.	voice
4.r	.	.	.	.	.	.
8B	and	.	.	.	.	.
=75	=75	=75	=75	=75	=75	=75
4e	you	1EM	E:maj (E G# B)	newline	.	voice
4e	keep	.	.	.	.	.
8d#	think-	.	.	.	.	.
8e	-in'	.	.	.	.	.
4r	.	.	.	.	.	.
=76	=76	=76	=76	=76	=76	=76
4e	that	1EM	E:maj (E G# B)	.	.	voice
4e	you'll	.	.	.	.	.
8e	ne-	.	.	.	.	.
8e	-ver	.	.	.	.	.
4B	get	.	.	.	.	.
=77	=77	=77	=77	=77	=77	=77
2B	burnt	1EM	E:maj (E G# B)	.	.	voice
4.r	.	.	.	.	.	.
8e	Hah	.	.	.	.	.
=78	=78	=78	=78	=78	=78	=78
2r	.	1EM	E:maj (E G# B)	.	.	voice
4.r	.	.	.	.	.	.
8B#	I	.	.	.	.	.
=79	=79	=79	=79	=79	=79	=79
4c#	_	1AM	A:maj (A C# E)	newline	.	voice
4c#	just	.	.	.	.	.
4c#	found	.	.	.	.	.
8c#	me	.	.	.	.	.
8B#	a	.	.	.	.	.
=80	=80	=80	=80	=80	=80	=80
4c#	brande	1AM	A:maj (A C# E)	.	.	voice
8B#	new	.	.	.	.	.
8c#	box	.	.	.	.	.
4r	.	.	.	.	.	.
8B#	of	.	.	.	.	.
8[c#	match-	.	.	.	.	.
=81	=81	=81	=81	=81	=81	=81
8c#]	_	1AM	A:maj (A C# E)	.	.	voice
4.e	-es	.	.	.	.	.
4.A	_	.	.	.	.	.
8[A	Yeah	.	.	.	.	.
=82	=82	=82	=82	=82	=82	=82
4A]	_	1AM	A:maj (A C# E)	.	.	voice
4r	.	.	.	.	.	.
4.r	.	.	.	.	.	.
8B	and	.	.	.	.	.
=83	=83	=83	=83	=83	=83	=83
4e	what	1EM	E:maj (E G# B)	newline	.	voice
8e	he	.	.	.	.	.
8[e	knows	.	.	.	.	.
4e]	_	.	.	.	.	.
8e	you	.	.	.	.	.
8[e	ain't	.	.	.	.	.
=84	=84	=84	=84	=84	=84	=84
8e]	_	1EM	E:maj (E G# B)	.	.	voice
4.e	had	.	.	.	.	.
8e	time	.	.	.	.	.
4B	_	.	.	.	.	.
8B	to	.	.	.	.	.
=85	=85	=85	=85	=85	=85	=85
2B	learn	1EM	E:maj (E G# B)	.	.	voice
2r	.	.	.	.	.	.
=86	=86	=86	=86	=86	=86	=86
2r	.	1EM	E:maj (E G# B)	.	.	voice
4r	.	.	.	.	.	.
4B	These	.	.	.	.	.
=87	=87	=87	=87	=87	=87	=87
*	*	*>C_chorus	*>C_chorus	*>C_chorus	*>C_chorus	*>C_chorus
4d#	boots	1GM	G:maj (G B D)	newline	.	voice
8d#	are	.	.	.	.	.
8[d#	made	.	.	.	.	.
4d#]	_	.	.	.	.	.
8d#	for	.	.	.	.	.
8[e	walk-	.	.	.	.	.
=88	=88	=88	=88	=88	=88	=88
8e]	_	1EM	E:maj (E G# B)	.	.	voice
8B	-in'	.	.	.	.	.
4r	.	.	.	.	.	.
4.r	.	.	.	.	.	.
8B	and	.	.	.	.	.
=89	=89	=89	=89	=89	=89	=89
4d#	that's	1GM	G:maj (G B D)	.	.	voice
4d#	just	.	.	.	.	.
8d#	what	.	.	.	.	.
4.d#	they'll	.	.	.	.	.
=90	=90	=90	=90	=90	=90	=90
2e	do	1EM	E:maj (E G# B)	.	.	voice
2r	.	.	.	.	.	.
=91	=91	=91	=91	=91	=91	=91
8d#	One	1GM	G:maj (G B D)	newline	.	voice
8d#	of	.	.	.	.	.
4d#	these	.	.	.	.	.
4d#	days	.	.	.	.	.
4d#	these	.	.	.	.	.
=92	=92	=92	=92	=92	=92	=92
4e	boots	1EM	E:maj (E G# B)	.	.	voice
4A#	are	.	.	.	.	.
8A#	gon-	.	.	.	.	.
4.A#	-na	.	.	.	.	.
=93	=93	=93	=93	=93	=93	=93
8B	walk	1N	N	.	.	voice
4.A	all	.	.	.	.	.
8G	ov-	.	.	.	.	.
8F#	-er	.	.	.	.	.
4E	_	.	.	.	.	.
=94	=94	=94	=94	=94	=94	=94
*	*	*>A2_outro	*>A2_outro	*>A2_outro	*>A2_outro	*>A2_outro
4E	you	1EM	E:maj (E G# B)	newline	.	guitar
4r	.	.	.	.	.	.
2r	.	.	.	.	.	.
=95	=95	=95	=95	=95	=95	=95
1r	.	1EM	E:maj (E G# B)	.	.	guitar
=96	=96	=96	=96	=96	=96	=96
1r	.	1EM	E:maj (E G# B)	.	.	guitar
=97	=97	=97	=97	=97	=97	=97
1r	.	1EM	E:maj (E G# B)	.	.	guitar
=98	=98	=98	=98	=98	=98	=98
1r	.	1EM	E:maj (E G# B)	newline	.	guitar
=99	=99	=99	=99	=99	=99	=99
1r	.	1EM	E:maj (E G# B)	.	.	guitar
=100	=100	=100	=100	=100	=100	=100
1r	.	1EM	E:maj (E G# B)	.	.	guitar
=101	=101	=101	=101	=101	=101	=101
1r	.	1EM	E:maj (E G# B)	.	.	guitar
=102	=102	=102	=102	=102	=102	=102
*	*	*>_fadeout	*>_fadeout	*>_fadeout	*>_fadeout	*>_fadeout
1r	.	1EM	E:maj (E G# B)	newline	.	brass
=103	=103	=103	=103	=103	=103	=103
1r	.	1EM	E:maj (E G# B)	.	.	brass
=104	=104	=104	=104	=104	=104	=104
1r	.	1EM	E:maj (E G# B)	.	.	brass
=105	=105	=105	=105	=105	=105	=105
1r	.	1EM	E:maj (E G# B)	.	.	brass
=106	=106	=106	=106	=106	=106	=106
1r	.	1EM	E:maj (E G# B)	newline	.	brass
=107	=107	=107	=107	=107	=107	=107
1r	.	1EM	E:maj (E G# B)	.	.	brass
=108	=108	=108	=108	=108	=108	=108
1r	.	1EM	E:maj (E G# B)	.	.	brass
=109	=109	=109	=109	=109	=109	=109
1r	.	1EM	E:maj (E G# B)	.	.	brass
=110	=110	=110	=110	=110	=110	=110
1r	.	1EM	E:maj (E G# B)	.	.	brass
=111	=111	=111	=111	=111	=111	=111
1r	.	1EM	E:maj (E G# B)	.	.	brass
r;	.	1r;	r	.	.	r
r;	.	1r;	r	.	.	r
*-	*-	*-	*-	*-	*-	*-
!!!BillboardChartDate: 1966/02/05
!!!BillboardPeak: 1
!!!BillboardWeeksOnChart: 14
!!!COC: Nancy Sinatra
!!!EMD: The original transcription was in halftime and in the wrong key (F instead of E). It also had too many measures near the end and said "organ" when brass comes in. The timestamps seemed off too, so I removed them. -Nat
!!!ENC: Nathaniel Condit-Schultz
!!!EST: Awating manual error checking and editing.
!!!OTL: These Boots Are Made For Walkin'
!!!RDF**chordsym: original McGill chord annotation + (implied pitch class set, with bass pitch in first position)
!!!RDF**harmony: **recip + pitch class of root + harmonic quality
!!!RDF**leadinstrument: original McGill primary instrumentation annotation
!!!RDF**phrase: newline = linebreak in original McGill transcription
!!!RDF**timestamp: McGill audio timestamp in seconds
!!!RDT: 2017/01/12/
!!!SampleActualRank: 28
!!!SampleID#: 0284
!!!SampleTargetRank: 29
